src/assets/outline/MonitorRecorder.svg

<svg width="24" height="24" viewBox="0 0 24 24"  xmlns="http://www.w3.org/2000/svg">
<path d="M17.56 17.97H6.44C2.46 17.97 1.25 16.76 1.25 12.78V6.44C1.25 2.46 2.46 1.25 6.44 1.25H8C8.41 1.25 8.75 1.59 8.75 2C8.75 2.41 8.41 2.75 8 2.75H6.44C3.3 2.75 2.75 3.3 2.75 6.44V12.77C2.75 15.91 3.3 16.46 6.44 16.46H17.55C20.69 16.46 21.24 15.91 21.24 12.77V11.88C21.24 11.47 21.58 11.13 21.99 11.13C22.4 11.13 22.74 11.47 22.74 11.88V12.77C22.75 16.76 21.54 17.97 17.56 17.97Z" />
<path d="M12 22.7497C11.59 22.7497 11.25 22.4097 11.25 21.9997V17.2197C11.25 16.8097 11.59 16.4697 12 16.4697C12.41 16.4697 12.75 16.8097 12.75 17.2197V21.9997C12.75 22.4097 12.41 22.7497 12 22.7497Z" />
<path d="M22 13.75H2C1.59 13.75 1.25 13.41 1.25 13C1.25 12.59 1.59 12.25 2 12.25H22C22.41 12.25 22.75 12.59 22.75 13C22.75 13.41 22.41 13.75 22 13.75Z" />
<path d="M16.5 22.75H7.5C7.09 22.75 6.75 22.41 6.75 22C6.75 21.59 7.09 21.25 7.5 21.25H16.5C16.91 21.25 17.25 21.59 17.25 22C17.25 22.41 16.91 22.75 16.5 22.75Z" />
<path d="M17.8598 10.1198H13.0998C11.5298 10.1198 10.5098 9.09977 10.5098 7.52977V4.00977C10.5098 2.48977 11.7398 1.25977 13.2598 1.25977H17.8598C19.2898 1.25977 20.4498 2.41977 20.4498 3.84977V7.52977C20.4498 8.95977 19.2898 10.1198 17.8598 10.1198ZM13.2598 2.75977C12.5698 2.75977 12.0098 3.31977 12.0098 4.00977V7.52977C12.0098 8.50977 12.6298 8.61977 13.0998 8.61977H17.8598C18.4598 8.61977 18.9498 8.12977 18.9498 7.52977V3.84977C18.9498 3.24977 18.4598 2.75977 17.8598 2.75977H13.2598Z" />
<path d="M21.4502 8.86971C21.1302 8.86971 20.8002 8.75971 20.4802 8.52971L19.2702 7.67971C19.0702 7.53971 18.9502 7.30971 18.9502 7.06971V4.30971C18.9502 4.06971 19.0702 3.83971 19.2702 3.69971L20.4802 2.84971C21.0002 2.47971 21.5602 2.40971 22.0202 2.64971C22.4802 2.88971 22.7402 3.38971 22.7402 4.02971V7.35971C22.7402 7.99971 22.4802 8.49971 22.0202 8.73971C21.8502 8.82971 21.6602 8.86971 21.4502 8.86971ZM20.4502 6.67971L21.2502 7.23971V4.13971L20.4502 4.69971V6.67971Z" />
</svg>

<?xml version="1.0" encoding="UTF-8"?>
<svg width="24" height="24" viewBox="0 0 24 24" xmlns="http://www.w3.org/2000/svg">
 <path d="m17.56 17.97h-11.12c-3.98 0-5.19-1.21-5.19-5.19v-6.34c0-3.98 1.21-5.19 5.19-5.19h1.56c0.41 0 0.75 0.34 0.75 0.75s-0.34 0.75-0.75 0.75h-1.56c-3.14 0-3.69 0.55-3.69 3.69v6.33c0 3.14 0.55 3.69 3.69 3.69h11.11c3.14 0 3.69-0.55 3.69-3.69v-0.89c0-0.41 0.34-0.75 0.75-0.75s0.75 0.34 0.75 0.75v0.89c0.01 3.99-1.2 5.2-5.18 5.2z"/>
 <path d="m12 22.75c-0.41 0-0.75-0.34-0.75-0.75v-4.78c0-0.41 0.34-0.75 0.75-0.75s0.75 0.34 0.75 0.75v4.78c0 0.41-0.34 0.75-0.75 0.75z"/>
 <path d="m22 13.75h-20c-0.41 0-0.75-0.34-0.75-0.75s0.34-0.75 0.75-0.75h20c0.41 0 0.75 0.34 0.75 0.75s-0.34 0.75-0.75 0.75z"/>
 <path d="m16.5 22.75h-9c-0.41 0-0.75-0.34-0.75-0.75s0.34-0.75 0.75-0.75h9c0.41 0 0.75 0.34 0.75 0.75s-0.34 0.75-0.75 0.75z"/>
 <path d="m17.86 10.12h-4.76c-1.57 0-2.59-1.02-2.59-2.59v-3.52c0-1.52 1.23-2.75 2.75-2.75h4.6c1.43 0 2.59 1.16 2.59 2.59v3.68c0 1.43-1.16 2.59-2.59 2.59zm-4.6-7.36c-0.69 0-1.25 0.56-1.25 1.25v3.52c0 0.98 0.62 1.09 1.09 1.09h4.76c0.6 0 1.09-0.49 1.09-1.09v-3.68c0-0.6-0.49-1.09-1.09-1.09h-4.6z"/>
 <path d="m21.45 8.8697c-0.32 0-0.65-0.11-0.97-0.34l-1.21-0.85c-0.2-0.14-0.32-0.37-0.32-0.61v-2.76c0-0.24 0.12-0.47 0.32-0.61l1.21-0.85c0.52-0.37 1.08-0.44 1.54-0.2s0.72 0.74 0.72 1.38v3.33c0 0.64-0.26 1.14-0.72 1.38-0.17 0.09-0.36 0.13-0.57 0.13zm-1-2.19 0.8 0.56v-3.1l-0.8 0.56v1.98z"/>
</svg>
